X:14006
T:New York Girls
T:Can't You Dance The Polka?
R:Polka
C:Trad.
O:England
Z:Paul Hardy's Possible Tunebook 2015 (see www.paulhardy.net). Creative Commons cc by-nc-sa licenced.
P:A2B2A
M:2/2
L:1/4
Q:1/4=170
K:G
d|"G"GB dB|"C"ce-eg|"D"fd cd|"G"B3 d|g>g gd|"C"fe ce|"D7"dd cA|"G"GA Bc|
"G"d3 B|"C"c e3|"D"d2 c2|"G"B G3|g3 d|"C"fe c2|"D7"d>d cA|"G"A G2!fine!:|
|:d|"G"zBdB|"C"c>BAG/A/|"G"BBc/B/A/G/|"D"AAB/c/B/A/|"G"zBdB|"C"c>BAG/A/|"G"BBc/B/A/G/|"D7"A2"G"G:|

